src/assets/icons/palette.svg

<svg width="14" height="14" viewBox="0 0 14 14" fill="none" xmlns="http://www.w3.org/2000/svg">
<g id="palette">
<g clip-path="url(#clip0_156_4497)">
<path id="Vector" d="M7.0639 0.000895838C7.03048 0.000895838 6.99887 0 6.96635 0C3.54223 0 0.566099 2.52361 0.0196479 5.90619C-0.0544166 6.36052 0.078355 6.82478 0.381839 7.17974C0.679903 7.52929 1.10803 7.728 1.55784 7.728C1.57319 7.728 1.59126 7.728 1.60842 7.728C3.18365 7.728 4.36687 8.11277 5.12558 8.87238C5.89242 9.64012 6.27629 10.8405 6.26726 12.441C6.26455 12.889 6.46235 13.3172 6.811 13.6161C7.10274 13.8654 7.46765 14.0009 7.84158 14C7.92287 14 8.00597 13.9937 8.08726 13.981C11.506 13.4319 14.0476 10.4024 13.9998 6.93496C13.9456 3.16399 10.8349 0.0532829 7.0639 0.000895838ZM7.87138 12.6434C7.81358 12.6497 7.74313 12.6316 7.69164 12.5874C7.66545 12.5648 7.62029 12.516 7.62119 12.4483C7.63203 10.472 7.11448 8.94735 6.083 7.91406C5.06145 6.8916 3.55577 6.37316 1.60842 6.37316C1.59126 6.37316 1.5741 6.37316 1.55694 6.37316C1.48558 6.37316 1.43591 6.32709 1.41152 6.29999C1.39074 6.2747 1.34287 6.20696 1.35642 6.12115C1.7981 3.39161 4.20158 1.35484 6.96545 1.35484C6.99164 1.35484 7.01874 1.35573 7.04403 1.35573C10.0373 1.39728 12.6007 3.96065 12.6431 6.95394C12.6829 9.75394 10.6307 12.1999 7.87138 12.6434ZM5.14726 4.31019C5.14726 4.81149 4.7399 5.21793 4.23861 5.21793C3.73823 5.21793 3.32997 4.81058 3.32997 4.31019C3.32997 3.80981 3.73732 3.40245 4.23861 3.40245C4.7399 3.40245 5.14726 3.80981 5.14726 4.31019ZM7.87229 3.17573C7.87229 3.67702 7.46494 4.08348 6.96365 4.08348C6.46326 4.08348 6.055 3.67612 6.055 3.17573C6.055 2.67444 6.46236 2.268 6.96365 2.268C7.46494 2.2671 7.87229 2.67444 7.87229 3.17573ZM8.78003 4.31019C8.78003 3.8089 9.18739 3.40245 9.68868 3.40245C10.19 3.40245 10.5973 3.80981 10.5973 4.31019C10.5973 4.81058 10.19 5.21793 9.68868 5.21793C9.18739 5.21793 8.78003 4.81149 8.78003 4.31019ZM11.7327 7.03522C11.7327 7.53652 11.3253 7.94296 10.824 7.94296C10.3236 7.94296 9.91538 7.53561 9.91538 7.03522C9.91538 6.53394 10.3227 6.12748 10.824 6.12748C11.3244 6.12658 11.7327 6.53394 11.7327 7.03522ZM10.5973 9.75935C10.5973 10.2606 10.19 10.6671 9.68868 10.6671C9.18739 10.6671 8.78003 10.2597 8.78003 9.75935C8.78003 9.25805 9.18739 8.8507 9.68868 8.8507C10.19 8.8507 10.5973 9.25896 10.5973 9.75935Z" fill="black"/>
</g>
</g>
<defs>
<clipPath id="clip0_156_4497">
<rect width="14" height="14" fill="white"/>
</clipPath>
</defs>
</svg>

<svg xmlns="http://www.w3.org/2000/svg" fill="none" viewBox="0 0 14 14"><g clip-path="url(#a)"><path fill="#000" d="M7.064 0h-.098C3.542 0 .566 2.524.02 5.906A1.57 1.57 0 0 0 .382 7.18c.298.35.726.548 1.176.548h.05c1.576 0 2.759.385 3.518 1.144.766.768 1.15 1.969 1.141 3.569-.002.448.195.876.544 1.175a1.58 1.58 0 0 0 1.276.365c3.419-.55 5.96-3.579 5.913-7.046C13.946 3.164 10.835.053 7.064.001m.807 12.643a.25.25 0 0 1-.18-.056c-.026-.022-.07-.071-.07-.139.011-1.976-.507-3.5-1.538-4.534-1.022-1.022-2.527-1.54-4.475-1.54h-.051a.2.2 0 0 1-.145-.074.23.23 0 0 1-.056-.179c.442-2.73 2.846-4.766 5.61-4.766h.078c2.993.042 5.557 2.606 5.6 5.599.039 2.8-2.013 5.246-4.773 5.69M5.147 4.31A.909.909 0 1 1 3.33 4.31a.909.909 0 0 1 1.817.001m2.725-1.134a.909.909 0 1 1-1.817-.002.909.909 0 0 1 1.817.002M8.78 4.31a.909.909 0 1 1 1.817.002.909.909 0 0 1-1.817-.002m2.953 2.725a.909.909 0 1 1-1.817-.001.909.909 0 0 1 1.817.001M10.597 9.76a.909.909 0 1 1-1.817-.001.909.909 0 0 1 1.817.001"/></g><defs><clipPath id="a"><path fill="#fff" d="M0 0h14v14H0z"/></clipPath></defs></svg>
